X:37
T: HERR SCHMIDT WAS KRIEGT DENN ROESCHEN MIT
N: E1033
O: Europa, Mitteleuropa, Deutschland, Sachsen
R: Tanz - Lied, Galopp - Walzer
M: 2/4
L: 1/16
K: G
B2 | d4z2B2 | d4z2
Bc | d2B2e2d2 | c4z2
A2 | c4z2A2 | c4z2
AB | c2A2d2c2 | B4z2
Bc | d2B2e2d2 | d2c2c2
AB | c2A2d2c2 | c2B2B2
Bc | d2B2e2d2 | d2c2c2
AB | c2A2d2c2 | c2B2B2

@@@ Tune index: 4721
